icons/td.svg

<?xml version="1.0" ?>
<svg xmlns="http://www.w3.org/2000/svg" xmlns:ev="http://www.w3.org/2001/xml-events" xmlns:xlink="http://www.w3.org/1999/xlink" baseProfile="full" height="600px" version="1.1" viewBox="1238.3995843375872 -1027.796153306881 7761.835916455309 12290.297889200558" width="379px">
	<defs/>
	<path d="M 3205.0,10094.0 L 2914.0,9949.0 L 2958.0,9662.0 C 2991.0,9442.0 3003.0,9332.0 3008.0,9190.0 L 3015.0,9005.0 L 3129.0,8838.0 C 3238.0,8676.0 3242.0,8669.0 3231.0,8639.0 C 3225.0,8621.0 3220.0,8588.0 3220.0,8564.0 C 3220.0,8523.0 3223.0,8519.0 3259.0,8500.0 C 3283.0,8488.0 3328.0,8445.0 3371.0,8393.0 C 3411.0,8344.0 3449.0,8298.0 3457.0,8289.0 C 3468.0,8276.0 3460.0,8255.0 3404.0,8147.0 C 3339.0,8021.0 3339.0,8020.0 3305.0,7828.0 C 3264.0,7598.0 3254.0,7491.0 3195.0,6690.0 C 3152.0,6102.0 3149.0,6075.0 3127.0,6051.0 C 3115.0,6037.0 2976.0,5893.0 2818.0,5730.0 C 2509.0,5411.0 2374.0,5251.0 2230.0,5034.0 C 2180.0,4958.0 2125.0,4881.0 2109.0,4865.0 C 2084.0,4838.0 2080.0,4826.0 2080.0,4778.0 C 2080.0,4723.0 2079.0,4722.0 2038.0,4697.0 C 2000.0,4675.0 1997.0,4669.0 1996.0,4629.0 C 1995.0,4590.0 1992.0,4585.0 1965.0,4577.0 C 1881.0,4551.0 1887.0,4561.0 1892.0,4447.0 C 1896.0,4386.0 1911.0,4287.0 1931.0,4200.0 C 1963.0,4056.0 1964.0,4055.0 2056.0,3902.0 C 2107.0,3818.0 2151.0,3742.0 2154.0,3732.0 C 2157.0,3723.0 2180.0,3702.0 2205.0,3686.0 C 2249.0,3659.0 2254.0,3658.0 2331.0,3664.0 C 2402.0,3671.0 2413.0,3669.0 2440.0,3650.0 C 2475.0,3625.0 2495.0,3564.0 2486.0,3508.0 C 2480.0,3472.0 2482.0,3469.0 2531.0,3430.0 C 2559.0,3408.0 2588.0,3390.0 2595.0,3390.0 C 2602.0,3390.0 2614.0,3383.0 2621.0,3373.0 C 2629.0,3364.0 2650.0,3351.0 2668.0,3343.0 C 2691.0,3333.0 2700.0,3323.0 2700.0,3306.0 C 2700.0,3293.0 2707.0,3263.0 2716.0,3239.0 C 2727.0,3207.0 2730.0,3177.0 2725.0,3127.0 C 2717.0,3043.0 2722.0,3026.0 2765.0,3001.0 C 2798.0,2982.0 2799.0,2980.0 2793.0,2931.0 C 2788.0,2887.0 2790.0,2877.0 2814.0,2850.0 C 2843.0,2815.0 2848.0,2775.0 2824.0,2749.0 C 2810.0,2734.0 2812.0,2728.0 2839.0,2684.0 L 2870.0,2636.0 L 2850.0,2615.0 C 2839.0,2603.0 2830.0,2580.0 2830.0,2563.0 C 2830.0,2547.0 2821.0,2507.0 2809.0,2474.0 C 2791.0,2422.0 2789.0,2401.0 2794.0,2295.0 C 2799.0,2191.0 2804.0,2168.0 2830.0,2112.0 C 2847.0,2077.0 2860.0,2035.0 2860.0,2020.0 C 2860.0,2001.0 2866.0,1989.0 2878.0,1986.0 C 2901.0,1978.0 2930.0,1929.0 2930.0,1896.0 C 2930.0,1879.0 2941.0,1862.0 2966.0,1844.0 C 2985.0,1829.0 3012.0,1796.0 3025.0,1771.0 C 3042.0,1738.0 3064.0,1715.0 3104.0,1690.0 C 3135.0,1671.0 3160.0,1652.0 3160.0,1649.0 C 3160.0,1645.0 3127.0,1633.0 3088.0,1622.0 C 3018.0,1604.0 3013.0,1603.0 2980.0,1620.0 C 2933.0,1643.0 2867.0,1652.0 2835.0,1640.0 C 2817.0,1633.0 2796.0,1633.0 2773.0,1639.0 C 2745.0,1647.0 2727.0,1644.0 2675.0,1625.0 C 2616.0,1602.0 2608.0,1602.0 2572.0,1614.0 C 2512.0,1636.0 2337.0,1661.0 2299.0,1654.0 C 2260.0,1646.0 2238.0,1623.0 2209.0,1559.0 C 2194.0,1524.0 2179.0,1508.0 2150.0,1495.0 C 2118.0,1480.0 2090.0,1447.0 2090.0,1422.0 C 2090.0,1418.0 2108.0,1404.0 2130.0,1390.0 C 2154.0,1376.0 2187.0,1340.0 2210.0,1305.0 C 2231.0,1272.0 2269.0,1228.0 2294.0,1208.0 C 2318.0,1187.0 2343.0,1156.0 2350.0,1138.0 C 2358.0,1113.0 2396.0,1079.0 2504.0,996.0 C 2583.0,936.0 2664.0,880.0 2684.0,872.0 C 2710.0,862.0 2720.0,852.0 2720.0,835.0 C 2720.0,810.0 2749.0,780.0 2773.0,780.0 C 2782.0,780.0 2790.0,777.0 2790.0,772.0 C 2790.0,768.0 2810.0,742.0 2835.0,713.0 C 2868.0,675.0 2892.0,631.0 2926.0,543.0 C 2952.0,478.0 2981.0,408.0 2991.0,388.0 C 3002.0,366.0 3010.0,330.0 3010.0,301.0 C 3010.0,254.0 3013.0,249.0 3047.0,225.0 C 3068.0,211.0 3093.0,200.0 3102.0,200.0 C 3124.0,200.0 3124.0,206.0 3100.0,142.0 C 3089.0,113.0 3080.0,79.0 3080.0,65.0 C 3080.0,42.0 3083.0,40.0 3130.0,40.0 C 3168.0,40.0 3185.0,35.0 3201.0,19.0 C 3220.0,0.0 3230.0,-2.0 3277.0,3.0 C 3312.0,7.0 3346.0,18.0 3371.0,34.0 C 3392.0,48.0 3421.0,60.0 3435.0,60.0 C 3468.0,60.0 3529.0,86.0 3556.0,111.0 C 3568.0,122.0 3590.0,134.0 3606.0,139.0 C 3628.0,144.0 3636.0,153.0 3638.0,174.0 C 3640.0,189.0 3649.0,204.0 3658.0,207.0 C 3667.0,211.0 3688.0,224.0 3703.0,237.0 C 3741.0,268.0 3747.0,266.0 3755.0,223.0 C 3759.0,202.0 3766.0,179.0 3772.0,173.0 C 3778.0,166.0 3780.0,154.0 3777.0,146.0 C 3773.0,136.0 3792.0,116.0 3835.0,86.0 C 3889.0,49.0 3901.0,44.0 3911.0,56.0 C 3917.0,64.0 3928.0,70.0 3934.0,70.0 C 3941.0,70.0 3963.0,79.0 3985.0,90.0 C 4006.0,101.0 4039.0,113.0 4057.0,116.0 C 4077.0,120.0 4115.0,145.0 4155.0,180.0 C 4216.0,234.0 4227.0,239.0 4293.0,251.0 C 4339.0,259.0 4377.0,272.0 4399.0,288.0 C 4430.0,311.0 4437.0,312.0 4516.0,306.0 C 4588.0,301.0 4606.0,303.0 4638.0,319.0 C 4668.0,335.0 4708.0,339.0 4855.0,345.0 C 4954.0,349.0 5040.0,357.0 5047.0,362.0 C 5054.0,367.0 5066.0,394.0 5075.0,420.0 C 5089.0,463.0 5099.0,473.0 5145.0,500.0 C 5200.0,531.0 5281.0,623.0 5328.0,707.0 C 5341.0,730.0 5360.0,752.0 5371.0,755.0 C 5397.0,764.0 5395.0,775.0 5362.0,797.0 C 5323.0,822.0 5247.0,907.0 5254.0,918.0 C 5257.0,923.0 5277.0,939.0 5299.0,954.0 C 5334.0,979.0 5352.0,983.0 5462.0,991.0 C 5774.0,1014.0 5893.0,1032.0 5955.0,1067.0 C 5978.0,1081.0 6004.0,1084.0 6072.0,1081.0 C 6152.0,1079.0 6164.0,1081.0 6210.0,1106.0 C 6238.0,1121.0 6266.0,1145.0 6273.0,1159.0 C 6282.0,1179.0 6295.0,1186.0 6325.0,1190.0 C 6357.0,1194.0 6366.0,1200.0 6368.0,1217.0 C 6371.0,1235.0 6378.0,1240.0 6400.0,1240.0 C 6420.0,1240.0 6435.0,1249.0 6452.0,1270.0 C 6465.0,1287.0 6496.0,1325.0 6522.0,1355.0 C 6553.0,1390.0 6574.0,1426.0 6581.0,1455.0 C 6589.0,1487.0 6597.0,1500.0 6610.0,1500.0 C 6620.0,1500.0 6641.0,1520.0 6659.0,1548.0 C 6692.0,1599.0 6751.0,1640.0 6794.0,1640.0 C 6814.0,1640.0 6824.0,1649.0 6841.0,1683.0 C 6879.0,1759.0 6906.0,1786.0 6955.0,1800.0 C 7013.0,1816.0 7020.0,1832.0 7020.0,1950.0 C 7020.0,2076.0 7035.0,2099.0 7111.0,2100.0 C 7126.0,2100.0 7144.0,2107.0 7151.0,2116.0 C 7158.0,2125.0 7174.0,2136.0 7187.0,2141.0 C 7200.0,2146.0 7210.0,2158.0 7210.0,2168.0 C 7210.0,2196.0 7231.0,2210.0 7272.0,2210.0 C 7301.0,2210.0 7333.0,2223.0 7394.0,2260.0 C 7487.0,2316.0 7513.0,2320.0 7669.0,2299.0 C 7714.0,2293.0 7754.0,2290.0 7756.0,2293.0 C 7765.0,2301.0 7810.0,2482.0 7810.0,2508.0 C 7810.0,2526.0 7788.0,2582.0 7775.0,2598.0 C 7774.0,2599.0 7754.0,2594.0 7732.0,2586.0 C 7690.0,2571.0 7690.0,2571.0 7690.0,2595.0 C 7690.0,2614.0 7680.0,2623.0 7648.0,2638.0 C 7624.0,2649.0 7589.0,2675.0 7568.0,2696.0 L 7532.0,2735.0 L 7540.0,2820.0 C 7545.0,2867.0 7556.0,2928.0 7564.0,2955.0 C 7573.0,2983.0 7580.0,3006.0 7580.0,3007.0 C 7580.0,3008.0 7561.0,3010.0 7538.0,3012.0 L 7497.0,3015.0 L 7469.0,3140.0 C 7454.0,3209.0 7441.0,3289.0 7441.0,3318.0 L 7440.0,3371.0 L 7378.0,3399.0 L 7315.0,3427.0 L 7275.0,3407.0 C 7240.0,3389.0 7138.0,3357.0 7135.0,3363.0 C 7134.0,3364.0 7121.0,3381.0 7107.0,3401.0 C 7073.0,3446.0 7072.0,3490.0 7103.0,3583.0 C 7120.0,3638.0 7131.0,3657.0 7155.0,3671.0 C 7298.0,3754.0 7309.0,3762.0 7321.0,3812.0 C 7330.0,3853.0 7330.0,3864.0 7316.0,3885.0 C 7307.0,3898.0 7300.0,3923.0 7300.0,3939.0 C 7300.0,3959.0 7292.0,3974.0 7278.0,3985.0 C 7262.0,3995.0 7250.0,4021.0 7239.0,4065.0 L 7224.0,4129.0 L 7284.0,4189.0 C 7318.0,4221.0 7380.0,4269.0 7423.0,4295.0 C 7489.0,4335.0 7520.0,4363.0 7520.0,4383.0 C 7520.0,4386.0 7497.0,4394.0 7470.0,4401.0 C 7430.0,4411.0 7421.0,4417.0 7426.0,4429.0 C 7440.0,4462.0 7423.0,4550.0 7399.0,4568.0 C 7384.0,4578.0 7383.0,4585.0 7392.0,4610.0 C 7401.0,4637.0 7411.0,4643.0 7491.0,4667.0 C 7563.0,4689.0 7579.0,4697.0 7574.0,4709.0 C 7541.0,4787.0 7540.0,4794.0 7571.0,4812.0 C 7591.0,4824.0 7600.0,4838.0 7600.0,4856.0 C 7600.0,4890.0 7647.0,4950.0 7687.0,4967.0 C 7708.0,4975.0 7720.0,4987.0 7720.0,5000.0 C 7720.0,5010.0 7724.0,5022.0 7730.0,5025.0 C 7735.0,5028.0 7746.0,5054.0 7755.0,5083.0 L 7771.0,5135.0 L 7735.0,5168.0 C 7683.0,5216.0 7687.0,5244.0 7754.0,5302.0 L 7808.0,5350.0 L 7897.0,5344.0 C 7975.0,5338.0 7991.0,5340.0 8026.0,5358.0 C 8077.0,5384.0 8192.0,5395.0 8280.0,5382.0 C 8316.0,5377.0 8347.0,5374.0 8349.0,5376.0 C 8351.0,5378.0 8333.0,5920.0 8310.0,6582.0 C 8281.0,7434.0 8265.0,7788.0 8257.0,7796.0 C 8245.0,7808.0 3537.0,10225.0 3510.0,10234.0 C 3502.0,10236.0 3364.0,10173.0 3205.0,10094.0" fill="pink"/>
</svg>

<?xml version="1.0" standalone="no"?>
<!DOCTYPE svg PUBLIC "-//W3C//DTD SVG 20010904//EN"
 "http://www.w3.org/TR/2001/REC-SVG-20010904/DTD/svg10.dtd">
<svg version="1.0" xmlns="http://www.w3.org/2000/svg"
 width="1024.000000pt" height="1024.000000pt" viewBox="0 0 1024.000000 1024.000000"
 preserveAspectRatio="xMidYMid meet">
<metadata>
Created by potrace 1.10, written by Peter Selinger 2001-2011
</metadata>
<g transform="translate(0.000000,1024.000000) scale(0.100000,-0.100000)"
fill="#000000" stroke="none">
<path d="M3205 10094 l-291 -145 44 -287 c33 -220 45 -330 50 -472 l7 -185
114 -167 c109 -162 113 -169 102 -199 -6 -18 -11 -51 -11 -75 0 -41 3 -45 39
-64 24 -12 69 -55 112 -107 40 -49 78 -95 86 -104 11 -13 3 -34 -53 -142 -65
-126 -65 -127 -99 -319 -41 -230 -51 -337 -110 -1138 -43 -588 -46 -615 -68
-639 -12 -14 -151 -158 -309 -321 -309 -319 -444 -479 -588 -696 -50 -76 -105
-153 -121 -169 -25 -27 -29 -39 -29 -87 0 -55 -1 -56 -42 -81 -38 -22 -41 -28
-42 -68 -1 -39 -4 -44 -31 -52 -84 -26 -78 -16 -73 -130 4 -61 19 -160 39
-247 32 -144 33 -145 125 -298 51 -84 95 -160 98 -170 3 -9 26 -30 51 -46 44
-27 49 -28 126 -22 71 7 82 5 109 -14 35 -25 55 -86 46 -142 -6 -36 -4 -39 45
-78 28 -22 57 -40 64 -40 7 0 19 -7 26 -17 8 -9 29 -22 47 -30 23 -10 32 -20
32 -37 0 -13 7 -43 16 -67 11 -32 14 -62 9 -112 -8 -84 -3 -101 40 -126 33
-19 34 -21 28 -70 -5 -44 -3 -54 21 -81 29 -35 34 -75 10 -101 -14 -15 -12
-21 15 -65 l31 -48 -20 -21 c-11 -12 -20 -35 -20 -52 0 -16 -9 -56 -21 -89
-18 -52 -20 -73 -15 -179 5 -104 10 -127 36 -183 17 -35 30 -77 30 -92 0 -19
6 -31 18 -34 23 -8 52 -57 52 -90 0 -17 11 -34 36 -52 19 -15 46 -48 59 -73
17 -33 39 -56 79 -81 31 -19 56 -38 56 -41 0 -4 -33 -16 -72 -27 -70 -18 -75
-19 -108 -2 -47 23 -113 32 -145 20 -18 -7 -39 -7 -62 -1 -28 8 -46 5 -98 -14
-59 -23 -67 -23 -103 -11 -60 22 -235 47 -273 40 -39 -8 -61 -31 -90 -95 -15
-35 -30 -51 -59 -64 -32 -15 -60 -48 -60 -73 0 -4 18 -18 40 -32 24 -14 57
-50 80 -85 21 -33 59 -77 84 -97 24 -21 49 -52 56 -70 8 -25 46 -59 154 -142
79 -60 160 -116 180 -124 26 -10 36 -20 36 -37 0 -25 29 -55 53 -55 9 0 17 -3
17 -8 0 -4 20 -30 45 -59 33 -38 57 -82 91 -170 26 -65 55 -135 65 -155 11
-22 19 -58 19 -87 0 -47 3 -52 37 -76 21 -14 46 -25 55 -25 22 0 22 6 -2 -58
-11 -29 -20 -63 -20 -77 0 -23 3 -25 50 -25 38 0 55 -5 71 -21 19 -19 29 -21
76 -16 35 4 69 15 94 31 21 14 50 26 64 26 33 0 94 26 121 51 12 11 34 23 50
28 22 5 30 14 32 35 2 15 11 30 20 33 9 4 30 17 45 30 38 31 44 29 52 -14 4
-21 11 -44 17 -50 6 -7 8 -19 5 -27 -4 -10 15 -30 58 -60 54 -37 66 -42 76
-30 6 8 17 14 23 14 7 0 29 9 51 20 21 11 54 23 72 26 20 4 58 29 98 64 61 54
72 59 138 71 46 8 84 21 106 37 31 23 38 24 117 18 72 -5 90 -3 122 13 30 16
70 20 217 26 99 4 185 12 192 17 7 5 19 32 28 58 14 43 24 53 70 80 55 31 136
123 183 207 13 23 32 45 43 48 26 9 24 20 -9 42 -39 25 -115 110 -108 121 3 5
23 21 45 36 35 25 53 29 163 37 312 23 431 41 493 76 23 14 49 17 117 14 80
-2 92 0 138 25 28 15 56 39 63 53 9 20 22 27 52 31 32 4 41 10 43 27 3 18 10
23 32 23 20 0 35 9 52 30 13 17 44 55 70 85 31 35 52 71 59 100 8 32 16 45 29
45 10 0 31 20 49 48 33 51 92 92 135 92 20 0 30 9 47 43 38 76 65 103 114 117
58 16 65 32 65 150 0 126 15 149 91 150 15 0 33 7 40 16 7 9 23 20 36 25 13 5
23 17 23 27 0 28 21 42 62 42 29 0 61 13 122 50 93 56 119 60 275 39 45 -6 85
-9 87 -6 9 8 54 189 54 215 0 18 -22 74 -35 90 -1 1 -21 -4 -43 -12 -42 -15
-42 -15 -42 9 0 19 -10 28 -42 43 -24 11 -59 37 -80 58 l-36 39 8 85 c5 47 16
108 24 135 9 28 16 51 16 52 0 1 -19 3 -42 5 l-41 3 -28 125 c-15 69 -28 149
-28 178 l-1 53 -62 28 -63 28 -40 -20 c-35 -18 -137 -50 -140 -44 -1 1 -14 18
-28 38 -34 45 -35 89 -4 182 17 55 28 74 52 88 143 83 154 91 166 141 9 41 9
52 -5 73 -9 13 -16 38 -16 54 0 20 -8 35 -22 46 -16 10 -28 36 -39 80 l-15 64
60 60 c34 32 96 80 139 106 66 40 97 68 97 88 0 3 -23 11 -50 18 -40 10 -49
16 -44 28 14 33 -3 121 -27 139 -15 10 -16 17 -7 42 9 27 19 33 99 57 72 22
88 30 83 42 -33 78 -34 85 -3 103 20 12 29 26 29 44 0 34 47 94 87 111 21 8
33 20 33 33 0 10 4 22 10 25 5 3 16 29 25 58 l16 52 -36 33 c-52 48 -48 76 19
134 l54 48 89 -6 c78 -6 94 -4 129 14 51 26 166 37 254 24 36 -5 67 -8 69 -6
2 2 -16 544 -39 1206 -29 852 -45 1206 -53 1214 -12 12 -4720 2429 -4747 2438
-8 2 -146 -61 -305 -140z"/>
</g>
</svg>
